dist/icons/name/Design.svg

<svg width="33" height="29" viewBox="0 0 33 29" fill="none" xmlns="http://www.w3.org/2000/svg">
<g filter="url(#filter0_d_7_86)">
<path d="M27.3871 0H5.6129C5.18531 0.000560118 4.77538 0.17067 4.47303 0.473027C4.17067 0.775384 4.00056 1.18531 4 1.6129V15.3226C4.00056 15.7502 4.17067 16.1601 4.47303 16.4625C4.77538 16.7648 5.18531 16.9349 5.6129 16.9355H13.9244L13.3866 18.5484H12.0645C11.9576 18.5484 11.855 18.5909 11.7794 18.6665C11.7038 18.7421 11.6613 18.8447 11.6613 18.9516V19.7581H8.03226C7.92532 19.7581 7.82275 19.8005 7.74713 19.8762C7.67151 19.9518 7.62903 20.0543 7.62903 20.1613C7.62903 20.2682 7.67151 20.3708 7.74713 20.4464C7.82275 20.522 7.92532 20.5645 8.03226 20.5645H25.7742C25.8811 20.5645 25.9837 20.522 26.0593 20.4464C26.1349 20.3708 26.1774 20.2682 26.1774 20.1613C26.1774 20.0543 26.1349 19.9518 26.0593 19.8762C25.9837 19.8005 25.8811 19.7581 25.7742 19.7581H21.3387V18.9516C21.3387 18.8447 21.2962 18.7421 21.2206 18.6665C21.145 18.5909 21.0424 18.5484 20.9355 18.5484H19.6134L19.0756 16.9355H27.3871C27.8147 16.9349 28.2246 16.7648 28.527 16.4625C28.8293 16.1601 28.9994 15.7502 29 15.3226V1.6129C28.9994 1.18531 28.8293 0.775384 28.527 0.473027C28.2246 0.17067 27.8147 0.000560118 27.3871 0ZM20.5323 19.3548V19.7581H12.4677V19.3548H20.5323ZM14.2369 18.5484L14.7747 16.9355H18.2253L18.7631 18.5484H14.2369ZM28.1935 15.3226C28.1933 15.5364 28.1082 15.7413 27.957 15.8925C27.8059 16.0437 27.6009 16.1288 27.3871 16.129H5.6129C5.3991 16.1288 5.19414 16.0437 5.04297 15.8925C4.89179 15.7413 4.80673 15.5364 4.80645 15.3226V14.5161H28.1935V15.3226ZM10.8377 10.0806L10.6865 13.7097H10.2167L10.0655 10.0806H10.8377ZM10.121 9.27419L10.3901 7.66129H10.5131L10.7823 9.27419H10.121ZM10.4516 6.85484C10.0146 6.85484 9.64516 6.30091 9.64516 5.64516C9.64516 5.23135 10.0675 4.63004 10.4506 4.20615C10.7959 4.58921 11.2581 5.20161 11.2581 5.64516C11.2581 6.30091 10.8886 6.85484 10.4516 6.85484ZM14.8397 6.04839L14.8871 6.14365V6.45161H13.2742V6.14365L13.3216 6.04839H14.8397ZM13.7248 5.24194L14.0806 4.53075L14.4365 5.24194H13.7248ZM14.8871 7.25806V13.6593C14.8873 13.6761 14.8884 13.693 14.8906 13.7097H13.2707C13.2729 13.693 13.274 13.6761 13.2742 13.6593V7.25806H14.8871ZM18.5161 5.64516H19.7258V6.45161H19.3226C19.2156 6.45161 19.1131 6.4941 19.0375 6.56971C18.9618 6.64533 18.9194 6.7479 18.9194 6.85484C18.9194 6.96178 18.9618 7.06434 19.0375 7.13996C19.1131 7.21558 19.2156 7.25806 19.3226 7.25806H19.7258V8.06452H18.5161C18.4092 8.06452 18.3066 8.107 18.231 8.18262C18.1554 8.25824 18.1129 8.3608 18.1129 8.46774C18.1129 8.57468 18.1554 8.67725 18.231 8.75287C18.3066 8.82849 18.4092 8.87097 18.5161 8.87097H19.7258V9.67742H19.3226C19.2156 9.67742 19.1131 9.7199 19.0375 9.79552C18.9618 9.87114 18.9194 9.9737 18.9194 10.0806C18.9194 10.1876 18.9618 10.2901 19.0375 10.3658C19.1131 10.4414 19.2156 10.4839 19.3226 10.4839H19.7258V11.2903H18.5161C18.4092 11.2903 18.3066 11.3328 18.231 11.4084C18.1554 11.484 18.1129 11.5866 18.1129 11.6935C18.1129 11.8005 18.1554 11.9031 18.231 11.9787C18.3066 12.0543 18.4092 12.0968 18.5161 12.0968H19.7258V13.7097H16.9032V4.03226H19.7258V4.83871H18.5161C18.4092 4.83871 18.3066 4.88119 18.231 4.95681C18.1554 5.03243 18.1129 5.13499 18.1129 5.24194C18.1129 5.34888 18.1554 5.45144 18.231 5.52706C18.3066 5.60268 18.4092 5.64516 18.5161 5.64516ZM23.3548 10.4839V13.6593C23.355 13.6761 23.3562 13.693 23.3584 13.7097H21.7384C21.7406 13.693 21.7418 13.6761 21.7419 13.6593V10.4839H23.3548ZM21.7419 9.67742V9.36946L22.5484 7.75655L23.3548 9.36946V9.67742H21.7419ZM28.1935 13.7097H24.1578C24.16 13.693 24.1611 13.6761 24.1613 13.6593V9.27419C24.1612 9.21159 24.1467 9.14985 24.119 9.09375L22.9093 6.6744C22.8757 6.60743 22.8242 6.55113 22.7604 6.51178C22.6967 6.47243 22.6233 6.4516 22.5484 6.4516C22.4735 6.4516 22.4001 6.47243 22.3363 6.51178C22.2726 6.55113 22.2211 6.60743 22.1875 6.6744L20.9778 9.09375C20.95 9.14985 20.9355 9.21159 20.9355 9.27419V13.6593C20.9356 13.6761 20.9368 13.693 20.939 13.7097H20.5323V3.62903C20.5323 3.52209 20.4898 3.41953 20.4142 3.34391C20.3385 3.26829 20.236 3.22581 20.129 3.22581H16.5C16.3931 3.22581 16.2905 3.26829 16.2149 3.34391C16.1393 3.41953 16.0968 3.52209 16.0968 3.62903V13.7097H15.69C15.6922 13.693 15.6934 13.6761 15.6935 13.6593V6.04839C15.6935 5.98579 15.679 5.92404 15.6512 5.86794L14.4415 3.44859C14.408 3.38163 14.3564 3.32532 14.2927 3.28598C14.229 3.24663 14.1555 3.22579 14.0806 3.22579C14.0057 3.22579 13.9323 3.24663 13.8686 3.28598C13.8048 3.32532 13.7533 3.38163 13.7198 3.44859L12.5101 5.86794C12.4823 5.92404 12.4678 5.98579 12.4677 6.04839V13.6593C12.4679 13.6761 12.4691 13.693 12.4713 13.7097H11.4934L11.6608 9.69405C11.6613 9.68498 11.6608 9.67591 11.6608 9.66633V9.65423C11.6599 9.64004 11.6582 9.62591 11.6557 9.61189V9.61089L11.2828 7.37248C11.751 7.01915 12.0645 6.37702 12.0645 5.64516C12.0645 4.60887 10.8634 3.46119 10.7263 3.33367C10.6516 3.26442 10.5535 3.22594 10.4516 3.22594C10.3497 3.22594 10.2516 3.26442 10.1769 3.33367C10.0398 3.46119 8.83871 4.60887 8.83871 5.64516C8.83871 6.37702 9.15222 7.01915 9.62046 7.37248L9.24748 9.61089V9.61189C9.24506 9.62591 9.24337 9.64004 9.24244 9.65423V9.66633C9.24244 9.67591 9.24194 9.68498 9.24244 9.69405L9.40978 13.7097H4.80645V1.6129C4.80673 1.3991 4.89179 1.19414 5.04297 1.04297C5.19414 0.891787 5.3991 0.806732 5.6129 0.806452H27.3871C27.6009 0.806732 27.8059 0.891787 27.957 1.04297C28.1082 1.19414 28.1933 1.3991 28.1935 1.6129V13.7097Z" fill="black"/>
</g>
<path d="M8.4355 14.9193H6.01614C5.9092 14.9193 5.80664 14.9618 5.73102 15.0374C5.6554 15.113 5.61292 15.2156 5.61292 15.3225C5.61292 15.4295 5.6554 15.532 5.73102 15.6077C5.80664 15.6833 5.9092 15.7258 6.01614 15.7258H8.4355C8.54244 15.7258 8.645 15.6833 8.72062 15.6077C8.79624 15.532 8.83872 15.4295 8.83872 15.3225C8.83872 15.2156 8.79624 15.113 8.72062 15.0374C8.645 14.9618 8.54244 14.9193 8.4355 14.9193Z" fill="black"/>
<path d="M10.0484 14.9193H9.64517C9.53823 14.9193 9.43567 14.9618 9.36005 15.0374C9.28443 15.113 9.24194 15.2156 9.24194 15.3225C9.24194 15.4295 9.28443 15.532 9.36005 15.6077C9.43567 15.6833 9.53823 15.7258 9.64517 15.7258H10.0484C10.1553 15.7258 10.2579 15.6833 10.3335 15.6077C10.4091 15.532 10.4516 15.4295 10.4516 15.3225C10.4516 15.2156 10.4091 15.113 10.3335 15.0374C10.2579 14.9618 10.1553 14.9193 10.0484 14.9193Z" fill="black"/>
<path d="M14.0807 7.66125C13.9737 7.66125 13.8712 7.70374 13.7955 7.77936C13.7199 7.85498 13.6774 7.95754 13.6774 8.06448V12.5C13.6774 12.6069 13.7199 12.7095 13.7955 12.7851C13.8712 12.8607 13.9737 12.9032 14.0807 12.9032C14.1876 12.9032 14.2902 12.8607 14.3658 12.7851C14.4414 12.7095 14.4839 12.6069 14.4839 12.5V8.06448C14.4839 7.95754 14.4414 7.85498 14.3658 7.77936C14.2902 7.70374 14.1876 7.66125 14.0807 7.66125Z" fill="black"/>
<path d="M22.5484 10.8871C22.4414 10.8871 22.3389 10.9296 22.2632 11.0052C22.1876 11.0808 22.1451 11.1834 22.1451 11.2903V12.5C22.1451 12.6069 22.1876 12.7095 22.2632 12.7851C22.3389 12.8607 22.4414 12.9032 22.5484 12.9032C22.6553 12.9032 22.7579 12.8607 22.8335 12.7851C22.9091 12.7095 22.9516 12.6069 22.9516 12.5V11.2903C22.9516 11.1834 22.9091 11.0808 22.8335 11.0052C22.7579 10.9296 22.6553 10.8871 22.5484 10.8871Z" fill="black"/>
<path d="M6.01614 2.41937H9.24195C9.34889 2.41937 9.45145 2.37688 9.52707 2.30126C9.60269 2.22564 9.64517 2.12308 9.64517 2.01614C9.64517 1.9092 9.60269 1.80664 9.52707 1.73102C9.45145 1.6554 9.34889 1.61292 9.24195 1.61292H6.01614C5.9092 1.61292 5.80664 1.6554 5.73102 1.73102C5.6554 1.80664 5.61292 1.9092 5.61292 2.01614C5.61292 2.12308 5.6554 2.22564 5.73102 2.30126C5.80664 2.37688 5.9092 2.41937 6.01614 2.41937Z" fill="black"/>
<path d="M6.01614 3.62908H6.82259C6.92953 3.62908 7.0321 3.5866 7.10772 3.51098C7.18334 3.43536 7.22582 3.3328 7.22582 3.22586C7.22582 3.11892 7.18334 3.01635 7.10772 2.94073C7.0321 2.86511 6.92953 2.82263 6.82259 2.82263H6.01614C5.9092 2.82263 5.80664 2.86511 5.73102 2.94073C5.6554 3.01635 5.61292 3.11892 5.61292 3.22586C5.61292 3.3328 5.6554 3.43536 5.73102 3.51098C5.80664 3.5866 5.9092 3.62908 6.01614 3.62908Z" fill="black"/>
<path d="M25.3709 12.9033H26.9838C27.0908 12.9033 27.1933 12.8608 27.269 12.7852C27.3446 12.7095 27.3871 12.607 27.3871 12.5C27.3871 12.3931 27.3446 12.2905 27.269 12.2149C27.1933 12.1393 27.0908 12.0968 26.9838 12.0968H25.3709C25.264 12.0968 25.1614 12.1393 25.0858 12.2149C25.0102 12.2905 24.9677 12.3931 24.9677 12.5C24.9677 12.607 25.0102 12.7095 25.0858 12.7852C25.1614 12.8608 25.264 12.9033 25.3709 12.9033Z" fill="black"/>
<path d="M26.5807 11.6935H26.9839C27.0908 11.6935 27.1934 11.6511 27.269 11.5754C27.3446 11.4998 27.3871 11.3973 27.3871 11.2903C27.3871 11.1834 27.3446 11.0808 27.269 11.0052C27.1934 10.9296 27.0908 10.8871 26.9839 10.8871H26.5807C26.4737 10.8871 26.3712 10.9296 26.2955 11.0052C26.2199 11.0808 26.1774 11.1834 26.1774 11.2903C26.1774 11.3973 26.2199 11.4998 26.2955 11.5754C26.3712 11.6511 26.4737 11.6935 26.5807 11.6935Z" fill="black"/>
<defs>
<filter id="filter0_d_7_86" x="0" y="0" width="33" height="28.5646" filterUnits="userSpaceOnUse" color-interpolation-filters="sRGB">
<feFlood flood-opacity="0" result="BackgroundImageFix"/>
<feColorMatrix in="SourceAlpha" type="matrix" values="0 0 0 0 0 0 0 0 0 0 0 0 0 0 0 0 0 0 127 0" result="hardAlpha"/>
<feOffset dy="4"/>
<feGaussianBlur stdDeviation="2"/>
<feComposite in2="hardAlpha" operator="out"/>
<feColorMatrix type="matrix" values="0 0 0 0 0 0 0 0 0 0 0 0 0 0 0 0 0 0 0.25 0"/>
<feBlend mode="normal" in2="BackgroundImageFix" result="effect1_dropShadow_7_86"/>
<feBlend mode="normal" in="SourceGraphic" in2="effect1_dropShadow_7_86" result="shape"/>
</filter>
</defs>
</svg>

<svg width="33" height="29" fill="none" xmlns="http://www.w3.org/2000/svg"><g filter="url(#filter0_d_7_86)"><path d="M27.387 0H5.613A1.615 1.615 0 004 1.613v13.71a1.615 1.615 0 001.613 1.613h8.311l-.537 1.612h-1.322a.403.403 0 00-.404.404v.806H8.032a.403.403 0 100 .806h17.742a.403.403 0 000-.806H21.34v-.806a.403.403 0 00-.403-.404h-1.323l-.537-1.612h8.311A1.616 1.616 0 0029 15.323V1.613A1.615 1.615 0 0027.387 0zm-6.855 19.355v.403h-8.064v-.403h8.064zm-6.295-.807l.538-1.612h3.45l.538 1.612h-4.526zm13.957-3.225a.807.807 0 01-.807.806H5.613a.807.807 0 01-.807-.806v-.807h23.388v.807zM10.837 10.08l-.151 3.629h-.47l-.152-3.63h.773zm-.717-.807l.27-1.613h.122l.27 1.613h-.662zm.33-2.42c-.436 0-.806-.553-.806-1.209 0-.414.423-1.015.806-1.439.345.383.807.996.807 1.44 0 .655-.37 1.209-.806 1.209zm4.389-.806l.047.096v.308h-1.613v-.308l.048-.096h1.518zm-1.115-.806l.356-.711.356.71h-.712zm1.162 2.016v6.401c0 .017.001.034.004.05h-1.62a.425.425 0 00.003-.05v-6.4h1.613zm3.63-1.613h1.209v.807h-.403a.403.403 0 100 .806h.403v.807h-1.21a.403.403 0 000 .806h1.21v.806h-.403a.403.403 0 100 .807h.403v.806h-1.21a.403.403 0 000 .807h1.21v1.613h-2.823V4.032h2.823v.807h-1.21a.403.403 0 000 .806zm4.838 4.839v3.175c0 .017.001.034.003.05h-1.62a.405.405 0 00.004-.05v-3.175h1.613zm-1.613-.807V9.37l.806-1.612.807 1.612v.308h-1.613zm6.451 4.033h-4.035a.425.425 0 00.003-.05V9.273a.41.41 0 00-.042-.18l-1.21-2.42a.404.404 0 00-.721 0l-1.21 2.42a.406.406 0 00-.043.18v4.385c0 .017.002.034.004.05h-.407V3.63a.403.403 0 00-.403-.403H16.5a.403.403 0 00-.403.403v10.08h-.407a.405.405 0 00.004-.05V6.05a.406.406 0 00-.043-.181l-1.21-2.42a.403.403 0 00-.721 0l-1.21 2.42a.408.408 0 00-.042.18v7.611c0 .017.001.034.003.05h-.978l.168-4.015v-.04a.377.377 0 00-.005-.042V9.61l-.373-2.239c.468-.353.782-.995.782-1.727 0-1.036-1.202-2.184-1.339-2.311a.404.404 0 00-.55 0C10.04 3.46 8.84 4.609 8.84 5.645c0 .732.313 1.374.781 1.727l-.373 2.239a.404.404 0 00-.005.043v.04l.168 4.016H4.806V1.613a.807.807 0 01.807-.807h21.774a.807.807 0 01.806.807V13.71z" fill="#000"/></g><path d="M8.435 14.92H6.016a.403.403 0 000 .806h2.42a.403.403 0 000-.807zm1.613 0h-.403a.403.403 0 000 .806h.403a.403.403 0 000-.807zm4.032-7.259a.403.403 0 00-.403.403V12.5a.403.403 0 00.807 0V8.064a.403.403 0 00-.403-.403zm8.468 3.226a.404.404 0 00-.403.403v1.21a.403.403 0 00.807 0v-1.21a.403.403 0 00-.404-.403zM6.016 2.42h3.226a.403.403 0 000-.807H6.016a.403.403 0 100 .806zm0 1.21h.807a.403.403 0 100-.807h-.807a.403.403 0 100 .806zm19.354 9.273h1.614a.404.404 0 000-.806H25.37a.403.403 0 000 .806zm1.21-1.209h.404a.403.403 0 100-.807h-.403a.404.404 0 000 .806z" fill="#000"/><defs><filter id="filter0_d_7_86" x="0" y="0" width="33" height="28.565" filterUnits="userSpaceOnUse" color-interpolation-filters="sRGB"><feFlood flood-opacity="0" result="BackgroundImageFix"/><feColorMatrix in="SourceAlpha" values="0 0 0 0 0 0 0 0 0 0 0 0 0 0 0 0 0 0 127 0" result="hardAlpha"/><feOffset dy="4"/><feGaussianBlur stdDeviation="2"/><feComposite in2="hardAlpha" operator="out"/><feColorMatrix values="0 0 0 0 0 0 0 0 0 0 0 0 0 0 0 0 0 0 0.25 0"/><feBlend in2="BackgroundImageFix" result="effect1_dropShadow_7_86"/><feBlend in="SourceGraphic" in2="effect1_dropShadow_7_86" result="shape"/></filter></defs></svg>
